X:1
T:Title
%%score [ ( 1 2 ) ( 3 4 ) ] { ( 5 6 ) | ( 7 8 ) }
L:1/8
Q:1/4=120
M:4/4
K:G
V:1 treble nm="Midi_74"
V:2 treble 
V:3 bass nm="Midi_74"
V:4 bass 
V:5 treble nm="Org."
V:6 treble 
V:7 bass 
V:8 bass 
V:1
 B8 | (c2 B2) (e2 d2) | d8 || G8 | (A2 G2) (c2 B2) | A4 G4 | d8 || F8 | (G2 F2) (B2 A2) | A8 || %10
 d8 | (c2 B2) (e2 d2) |"^William Henry Havergal\n(1793-1870)" d4 F4 | G8 |] %14
V:2
 D8 | (E2 D2) (C2 B,2) | B,8 || G8 | (F2 G2) (F2 G2) | D4 G4 | F8 || D8 | D4 D4 | D8 || D8 | %11
 G4 G4 | D4 D4 | D8 |] %14
V:3
 G,8 | G,4 G,4 | G,8 || D8 | D4 D4 | (D2 A,2) (B,2 ^C2) | D8 || A,8 | (B,2 A,2) (G,2 F,2) | F,8 || %10
 G,8 | G,4 G,4 | (B,2 A,2) (D2 C2) | B,8 |] %14
V:4
 G,8 | G,4 G,4 | G,8 || B,8 | (C2 B,2) (A,2 G,2) | F,4 E,4 | D,8 || D,8 | D,4 D,4 | D,8 || B,,8 | %11
 (E,2 D,2) (C,2 B,,2) | D,4 D,4 | G,,8 |] %14
V:5
 B8 | c2 B2 e2 d2 | d8 || G8 | [FA]2 G2 [Fc]2 [GB]2 | [DA]4 G4 | d8 || F8 | G2 F2 B2 A2 | A8 || %10
 d8 | c2 B2 e2 d2 | d4 F4 | G8 |] %14
V:6
 G8 | G4 G4 | G8 || [DG]8 | D4 D4 | D2 A,2 B,2 ^C2 | [DF]8 || D8 | D4 D4 | D8 || [DG]8 | G4 G4 | %12
 [DG]4 D2 C2 | B,8 |] %14
V:7
 D8 | E2 D2 C2 B,2 | B,8 || x8 | x8 | x8 | x8 || A,8 | B,2 A,2 G,2 F,2 | F,8 || G,8 | G,4 G,4 | %12
 B,2 A,2 A,4 | G,8 |] %14
V:8
 G,8 | G,4 G,4 | G,8 || B,8 | C2 B,2 A,2 G,2 | F,4 E,4 | D,8 || D,8 | D,4 D,4 | D,8 || B,,8 | %11
 E,2 D,2 C,2 B,,2 | D,4 D,4 | G,,8 |] %14

